!!!OTL: Betrogen (109), S. 263
!!!id: T0272
**kern
*clefG2
*k[f#]
*G:
{8d
8g
=1
4g
4g
8b
8g
=2
4d
4d}
=3
{8g
8g
=4
4.e
8f#
8g
8e
=5
4d}
4r
=6
{8d
8d
=7
4cc
8cc
8cc
8dd
8cc
=8
4b
4b}
=9
{16g
16g
8g
=10
4a
4a
4d
=11
4g}
4r
==
*-
!!!minrhy: 16
!!!meters: 3/4 ]  ZZ[4
!!!cut: Betrogen (109), S. 263
!!!reg: Luxemburg
!!!trd: Singendes Volk, Esch-Alzette 1937 posth.
!!!rhy1: X_X_  X__X__X_X_  X__X__   (x2)
!!!rhy2: X_X_  X__.X_X_X_  X__0_
!!!key: T0272  16  G 3/4 ]  ZZ[4
!!!mod: HEPTATONIK IONISCH]  AMBITUS[8
!!!kad: -5-531
!!!akz: 1-5_-6-5_43_21_
!!!fot: 'a__b__c__d__
!!!for: 'a__b__c__d__
!!!fok: '^__Sd_^a_V__
!! PHRAS[AUFTAKTIG]
!!!fkt: Liebeslieder
!!!bem: Rammeldingen, hhh Nikolaus Felten, 25.2.1934
!! THILL, Mathias:
!! PR[23] 2K[0] 2G[4] 3K[10] 3G[13] 4A[8] 4Ü[0] 5A[1] 6K[0] 6G[0]
!! 7K[0] 7G[0] 8A[0] MEHR[0] SI[35] ABS[79] SR[4] SP[32]
!! ST[32] 2k[5] 2g[25] 3k[5] 3g[3] 4d[0] 4ü[0] 5d[1] 6k[0] 6g[0]
!! 7k[0] 7g[0] 8d[3] mehr[0] si[42] dm[-7] sr[30] sp[11]
!! 1F[80] 2F[20] 3F[0] 4F[0] LF[0] 2P[0] 3P[0] 4P[0] TRI[0] DF[2] AB[80]
!! TF[0] U3K[0] U3[0] U4[0] U4Ü[0] U5[0] U6K[0] U6[0] U7K[0] U7[0]
!! N1[8] N2K[0] N2[0] N3K[0] N3[10] N4[5] N4Ü[0] N5[15] N6K[0] N6[8]
!!!n7k: 0] N7[5] O1[20] O2K[0] O2[23] O3K[0] O3[5] HÖ[3
